Bloom-Colors/scalable/actions/tool-highlight-symbolic.svg

<svg width="16" height="16" version="1.1" xmlns="http://www.w3.org/2000/svg">
<path d="m5 8.5 3.5 3.5-1 1h-2l-1.5-1.5v-2zm-4 4.5h2c2 0 2 2 2 2h-4zm11-10.5-6.25 5.25 3.5 3.5 5.25-6.25c1.122-1.122 0-2 0-2l-0.5-0.5s-0.866-1.1341-2 0z" fill="#666"/>
</svg>

<svg xmlns="http://www.w3.org/2000/svg" width="16" height="16" version="1.1">
 <path style="fill:#444444" d="M 5,8.5 8.5,12 7.5,13 H 5.5 L 4,11.5 V 9.5 Z M 1,13 H 3 C 5,13 5,15 5,15 H 1 Z M 12,2.5 5.75,7.75 9.25,11.25 14.5,5 C 15.622,3.878 14.5,3 14.5,3 L 14,2.5 C 14,2.5 13.134,1.3659 12,2.5 Z"/>
</svg>
